!!!!SEGMENT: 035-1b-BH-004.krn
!!!COM: Chopin, Fryderyk
!!!OTL: Sonate. Finale. Presto.
!!!OPS: Op. 35
!!!PTL: Sonate pour le Piano
!!!OMV: 4
!!!PPR: Breitkopf & Härtel
!!!PPP: Leipzig
!!!NIFC-rismID: 1001040127
!!!NIFC-shelfmark: PL-Wbfc 684/n
!!!OMD: FINALE.
!!!OMD: Presto.
**kern	**kern	**dynam
*part1	*part1	*part1
*staff2	*staff1	*
*clefF4	*clefG2	*
*k[b-e-a-d-g-]	*k[b-e-a-d-g-]	*
*b:	*b:	*
*M2/2	*M2/2	*
*met(c|)	*met(c|)	*
=1	=1	=1
*Xtuplet	*Xtuplet	*
!	!LO:TX:a:i:t=sotto voce e legato.	!
!LO:TX:t=P:'FINALE.' should be before the accolade:problem	!	!
12FFL	12F<L	.
12GGn	12Gn<	.
12BB-J	12B-<J	.
12D-L	12d-L	.
12EEn	12En<	.
12GGJ	12G<J	.
12FFL	12F<L	.
12GG	12G<	.
12BB-J	12B-<J	.
12D-L	12d-L	.
12EE	12E<	.
12GGJ	12G<J	.
=2	=2	=2
12GGnL	12Gn<L	.
12AAn	12An<	.
12CJ	12c<J	.
12E-L	12e-L	.
12FF#X	12F#<	.
12AAJ	12A<J	.
12GGL	12G<L	.
12AA	12A<	.
12CJ	12c<J	.
12E-L	12e-L	.
12FF#	12F#<	.
12AAJ	12A<J	.
=3	=3	=3
12BB-L	12B-<L	.
12C	12c	.
12E-J	12e-J	.
12G-L	12g-L	.
12AAn	12An<	.
12CJ	12cJ	.
12D-L	12d-L	.
12E-	12e-	.
12G-J	12g-J	.
12AnL	12anL	.
12C	12c	.
12E-J	12e-J	.
!!LO:LB:g=original
=4	=4	=4
12D-L	12d-L	.
12E-	12e-	.
12G-J	12g-J	.
12AnL	12anL	.
12C	12c	.
12E-J	12e-J	.
12G-L	12g-L	.
12B-	12b-	.
12cJ	12ccJ	.
12e-L	12ee-L	.
12F	12f	.
12AJ	12aJ	.
=5	=5	=5
12B->L	12b-L	.
12d->	12dd-	.
12g->J	12gg-J	.
12f>L	12ffL	.
12c>	12cc	.
12d->J	12dd-J	.
12f->L	12ff-XL	.
12c>	12cc	.
12d->J	12dd-J	.
12AnL	12anL	.
12B-	12b-	.
12G-J	12g-J	.
=6	=6	=6
12EnL	12enL	.
12F	12f	.
12B-J	12b-J	.
12G#XL	12g#XL	.
12An	12an	.
12d-J	12dd-J	.
12AL	12aL	.
12B-	12b-	.
12d-J	12dd-J	.
12BnL	12bnL	.
12c	12cc	.
12fJ	12ffJ	.
!!LO:LB:g=original
=7	=7	=7
12A-L	12a-L	.
12c-X	12cc-X	.
12f->J	12ff-XJ	.
12e->L	12ee-L	.
12B-	12b-	.
12c->J	12cc-J	.
12e-->L	12ee--L	.
12B->	12b-	.
12c->J	12cc-J	.
12GnL	12gnL	.
12A-	12a-	.
12F-XJ	12f-XJ	.
=8	=8	=8
12DnL	12dnL	.
12E-	12e-	.
!LO:SIC:s=12A-J:v	!	!
!	!LO:SIC:s=12a-J:v	!
12B-J	12b-J	.
12EnL	12enL	.
12F	12f	.
12c-XJ	12cc-XJ	.
12FL	12fL	.
12G-	12g-	.
12c-J	12cc-J	.
12AnL	12anL	.
12B-	12b-	.
12e-J	12ee-J	.
=9	=9	=9
12d-L	12dd-L	.
12F	12f	.
12B-J	12b-J	.
12C#XL	12c#XL	.
12En	12en	.
12AnJ	12anJ	.
12c#L	12cc#L	.
12E-X	12e-X	.
12A-XJ	12a-XJ	.
12BBnL	12BnL	.
12Dn	12dn	.
12GnJ	12gnJ	.
!!LO:LB:g=original
=10	=10	=10
12c-XL	12cc-XL	.
12E--	12e--	.
12G-J	12g-J	.
12BB-L	12B-L	.
12D-	12d-	.
12G-J	12g-J	.
12B-L	12b-L	.
12G-	12g-	.
12c-J	12cc-J	.
12cnL	12ccnL>	.
12d->	12dd-	.
12e-X>J	12ee-XJ	.
=11	=11	=11
12en>L	12eenL>	.
12Gn	12gn	.
12cJ	12ccJ	.
12E-XL	12e-XL	.
12G-X	12g-X	.
12c-XJ	12cc-XJ	.
12dnL	12ddnL	.
12F	12f	.
12B-J	12b-J	.
12C#XL	12c#XL	.
12En	12en	.
12AnJ	12anJ	.
=12	=12	=12
12cnL	12ccnL	.
12En	12en	.
12A-XJ	12a-XJ	.
12BBnL	12BnL	.
12Dn	12dn	.
12GnJ	12gnJ	.
12BnL	12bnL	.
12F#X	12f#X	.
12c#XJ	12cc#XJ	.
12dniL	12ddniL	.
12e-X	12ee-X	.
12enJ	12eenJ	.
!!LO:LB:g=original
=13	=13	=13
12f>L	12ffL	<
12An>	12an	.
12e->J	12ee-J	.
12en>L	12eenL	.
12f>	12ff	.
12g->J	12gg-J	.
12f>L	12ffL	.
12B->	12b-	.
12d->J	12dd-J	.
12e>L	12eeL	.
12f>	12ff	.
12f#>J	12ff#XJ	.
=14	=14	=14
12gn>L	12ggnL	.
12Bn>	12bn	.
12f>J	12ffJ	.
12f#>L	12ff#XL	.
12g>	12gg	.
12a->J	12aa-J	.
12g>L	12ggL	.
12c>	12cc	.
12e->J	12ee-J	.
12f#>L	12ff#L	.
12g>	12gg	.
12a->J	12aa-J	[
=15	=15	=15
12e->L	12ee-L>	.
12c>	12cc	.
12f>J	12ffJ	.
12e->L	12ee-L>	.
12A->	12a-	.
12d->J	12dd-J	.
12c>L	12ccL	.
12E-	12e-	.
12B-J	12b-J	.
12A-L	12a-L	.
12C	12c	.
12FJ	12fJ	.
!!LO:LB:g=original
=16	=16	=16
12E-L	12e-L	.
12AA-	12A-<	.
12D-J	12d-J	.
12CL	12c<L	.
12GGn	12Gn<	.
12AA-J	12A-<J	.
12CL	12c<L	.
12FF#X	12F#<	.
12DnJ	12dnJ	.
12CL	12cL	.
12EE#X	12E#<	.
12FF#J	12F#<J	.
=17	=17	=17
12GGnL	12Gn<L	.
12AAn	12An<	.
12BBnJ	12Bn<J	.
12CL	12cL	.
12Dn	12dn	.
12E-J	12e-J	.
12AA-XL	12A-<L	.
12BB-X	12B-<	.
12BBnJ	12Bn<J	.
12CL	12cL	.
12D-X	12d-	.
12E-J	12e-J	.
=18	=18	=18
12AAnL	12An<L	.
12BB-	12B-<	.
12CJ	12cJ	.
12D-L	12d-L	.
12E-	12e-	.
12FJ	12fJ	.
12BB-L	12B-<L	.
12BBn	12Bn<	.
12CJ	12c<J	.
12D-L	12d-L	.
12E-	12e-	.
12FJ	12fJ	.
!!LO:PB:g=original
=19	=19	=19
12CL<	12cL	.
12D-	12d-	.
12DnJ	12dnJ	.
12E-L	12e-L	.
12F	12f	.
12G-J	12g-J	.
12BB--L	12B--<L	.
12D-	12d-	.
12DnJ	12dnJ	.
12E-L	12e-L	.
12F	12f	.
12G-J	12g-J	.
=20	=20	=20
12B--L	12b--L	.
12G-	12g-	.
12F-XJ	12f-XJ	.
12E--L	12e--L	.
12F-	12f-	.
12G-J	12g-J	.
12BB--L	12B--<L	.
12D-	12d-	.
12DnJ	12dnJ	.
12EnL	12enL	.
12Fn	12fn	.
12G-J	12g-J	.
=21	=21	=21
12B--L	12b--L	.
12A-	12a-	.
12GnJ	12gnJ	.
12G-XL	12g-XL	.
12E-	12e-	.
12CJ	12cJ	.
12G-L	12g-L	.
12E-	12e-	.
12CJ	12cJ	.
12BB-L	12B-<L	.
12AAn	12An<	.
12AA-XJ	12A-<J	.
!!LO:LB:g=original
=22	=22	=22
12GGnL	12Gn<L	.
12AA-	12A-<	.
12BB--J	12B--<J	.
12FFL	12F<L	.
12GG-X	12G-<	.
12AA-J	12A-<J	.
12EEnL	12En<L	.
12FF	12F<	.
12GG-J	12G-<J	.
12DDnL	12Dn<L	.
12EE	12E<	.
12FFJ	12F<J	.
=23	=23	=23
12GGGnL	12GGn<L	.
12AAA-	12AA-<	.
12BBB-J	12BB-<J	.
12CCL	12C<L	.
12DD-	12D-<	.
12EE-J	12E-<J	.
12FFL	12F<L	.
12GG-X	12G-X<	.
12GGnJ	12Gn<J	.
12AA-L	12A-<L	.
12FF	12F<	.
12BB-J	12B-<J	.
=24	=24	=24
12AA-L	12A-<L	.
12F	12f	.
12E-J	12e-J	.
12D-L<	12d-L	.
12C	12c	.
12BB-J	12B-J	.
12AA-L	12A-<L	.
12FF	12F<	.
12GG-J	12G-<J	.
12AA-L	12A-<L	.
12FF	12F<	.
12BB-J	12B-<J	.
!!LO:LB:g=original
=25	=25	=25
12AA-L	12A-<L	.
12EE-	12E-<	.
12FFJ	12F<J	.
12GG-L	12G-<L	.
12EE-	12E-<	.
12BB-J	12B-<J	.
12AA-L	12A-<L	.
12DD-	12D-<	.
12EE-J	12E-<J	.
12FFL	12F<L	.
12DD-	12D-<	.
12BB-J	12B-<J	.
=26	=26	=26
12AA-L	12A-<L	.
12CC	12C<	.
12DD-J	12D-<J	.
12EE-L	12E-<L	.
12CC	12C<	.
12FFJ	12F<J	.
12EE-L	12E-<L	.
12BBB-	12BB-<	.
12FFJ	12F<J	.
12EE-L	12E-<L	.
12AAA-	12AA-<	.
12BBB-J	12BB-<J	.
=27	=27	=27
12AAA-L	12AA-<L	.
12DD-	12D-<	.
12EE-J	12E-<J	.
12FFL	12F<L	.
12GG-	12G-<	.
12AA-J	12A-<J	.
12BB-L<	12B-L	.
12C	12c	.
12D-J	12d-J	.
12E-L	12e-L	.
12F	12f	.
12G-J	12g-J	.
=28	=28	=28
12A-L	12a-L>	.
12f>	12ff	.
12e->J	12ee-J	.
12d->L	12dd-L>	.
12c>	12cc	.
12B->J	12b-J	.
12A-L	12a-L	.
12F	12f	.
12G-J	12g-J	.
12A-L	12a-L	.
12F	12f	.
12B-J	12b-J	.
!!LO:LB:g=original
=29	=29	=29
12A-L	12a-L	.
12E-	12e-	.
12FJ	12fJ	.
12G-L	12g-L	.
12E-	12e-	.
12B-J	12b-J	.
12A-L	12a-L	.
12D-	12d-	.
12E-J	12e-J	.
12FL	12fL	.
12D-	12d-	.
12B-J	12b-J	.
=30	=30	=30
12A-L	12a-L	.
12C	12c	.
12D-J	12d-J	.
12E-L	12e-L	.
12C	12c	.
12FJ	12fJ	.
12E-L	12e-L	.
12BB-	12B-	.
12FJ	12fJ	.
12E-L	12e-L	.
12AA-	12A-	.
12FJ	12fJ	.
=31	=31	=31
12G-L	12g-L	.
12F	12f	.
12E-J	12e-J	.
12D-L<	12d-L	.
12C	12c	.
12BB-J	12B-J	.
12AAnL	12An<L	.
12F	12f	.
12CJ	12cJ	.
12E-L<	12e-L	.
12D-	12d-	.
12BB-J	12B-J	.
=32	=32	=32
12AAnL	12An<L	.
12F	12f	.
12CJ	12cJ	.
12E-L<	12e-L	.
12D-	12d-	.
12BB-J	12B-J	.
12AAL	12A<L	.
12F	12f	.
12CJ	12cJ	.
12E-L<	12e-L	.
12D-	12d-	.
12BB-J	12B-J	.
!!LO:LB:g=original
=33	=33	=33
12A-L	12a-L	.
12Gn	12gn	.
12FJ	12fJ	.
12E-L	12e-L	.
12Dn	12dn	.
12CJ	12cJ	.
12BBnL	12BnL	.
12Gn	12gn	.
12DnJ	12dnJ	.
12FL	12fL	.
12E-	12e-	.
12CJ	12cJ	.
=34	=34	=34
12BBnL	12BnL	.
12Gn	12gn	.
12DnJ	12dnJ	.
12FL	12fL	.
12E-	12e-	.
12CJ	12cJ	.
12BBL	12BL	.
12G	12g	.
12DJ	12dJ	.
12FL	12fL	.
12E-	12e-	.
12CJ	12cJ	.
=35	=35	=35
12d-XL	12dd-XL>	.
12c	12cc	.
12B-J	12b-J	.
12A-L	12a-L	.
12G-	12g-	.
12FJ	12fJ	.
12B-L	12b-L	.
12F-X	12f-X	.
12G-J	12g-J	.
12D-L	12d-L	.
12F-	12f-	.
12CJ	12cJ	.
!!LO:LB:g=original
=36	=36	=36
12d-L	12dd-L>	.
12c	12cc	.
12B-J	12b-J	.
12A-L	12a-L	.
12G-	12g-	.
12FJ	12fJ	.
12B-L	12b-L	.
12F-X	12f-X	.
12G-J	12g-J	.
12D-L	12d-L	.
12F-	12f-	.
12CJ	12cJ	.
=37	=37	=37
12B-L	12b-L	.
12F-X	12f-X	.
12G-J	12g-J	.
12D-L	12d-L	.
12E-	12e-	.
12CJ	12cJ	.
12G-L	12g-L	.
12D-	12d-	.
12EnJ	12enJ	.
12CL	12cL	.
12E	12e	.
12BB-J	12B-<J	.
=38	=38	=38
12F-XL	12f-L	.
12BB-	12B-	.
12D-J	12d-J	.
12AAnL	12An<L	.
12BB-	12B-<	.
12AA-XJ	12A-<J	.
12D-L	12d-L	.
12AA-	12A-<	.
12BB-J	12B-<J	.
12GGnL	12Gn<L	.
12BB-	12B-<	.
12GG-XJ	12G-<J	.
!!LO:PB:g=original
=39	=39	=39
12FFL	12F<L	.
12GGn	12Gn<	.
12BB-J	12B-<J	.
12D-L	12d-L	.
12EEn	12En<	.
12GGJ	12G<J	.
12FFL	12F<L	.
12GG	12G<	.
12BB-J	12B-<J	.
12D-L	12d-L	.
12EE	12E<	.
12GGJ	12G<J	.
=40	=40	=40
12GGnL	12Gn<L	.
12AAn	12An<	.
12CJ	12c<J	.
12E-L	12e-L	.
12FF#X	12F#<	.
12AAJ	12A<J	.
12GGL	12G<L	.
12AA	12A<	.
12CJ	12c<J	.
12E-L	12e-L	.
12FF#	12F#<	.
12AAJ	12A<J	.
=41	=41	=41
12BB-L	12B-<L	.
12C	12c	.
12E-J	12e-J	.
12G-L	12g-L	.
12AAn	12An<	.
12CJ	12cJ	.
12D-L	12d-L	.
12E-	12e-	.
12G-J	12g-J	.
12AnL	12anL	.
12C	12c	.
12E-J	12e-J	.
!!LO:LB:g=original
=42	=42	=42
12D-L	12d-L	.
12E-	12e-	.
12G-J	12g-J	.
12AnL	12anL	.
12C	12c	.
12E-J	12e-J	.
12G-L	12g-L	.
12B-	12b-	.
12cJ	12ccJ	.
12e-L	12ee-L	.
12F	12f	.
12AJ	12aJ	.
=43	=43	=43
12B->L	12b-L	.
12d->	12dd-	.
12g->J	12gg-J	.
12f>L	12ffL	.
12c>	12cc	.
12d->J	12dd-J	.
12f->L	12ff-XL	.
12c>	12cc	.
12d->J	12dd-J	.
12AnL	12anL	.
12B-	12b-	.
12G-J	12g-J	.
=44	=44	=44
12EnL	12enL	.
12F	12f	.
12B-J	12b-J	.
12G#XL	12g#XL	.
12An	12an	.
12d-J	12dd-J	.
12AL	12aL	.
12B-	12b-	.
12d-J	12dd-J	.
12BnL	12bnL	.
12c	12cc	.
12fJ	12ffJ	.
!!LO:LB:g=original
=45	=45	=45
12A-L<	12a-L>	.
12c-X	12cc-X	.
12f-X>J	12ff-XJ	.
12e->L	12ee-L>	.
12B->	12b-	.
12c->J	12cc-J	.
12e-->L	12ee--L>	.
12B->	12b-	.
12c->J	12cc-J	.
12GnL	12gnL	.
12A-	12a-	.
12F-XJ	12f-XJ	.
=46	=46	=46
12DnL	12dnL	.
12E-	12e-	.
12A-J	12a-J	.
12EnL	12enL	.
12F	12f	.
12c-XJ	12cc-XJ	.
12FL	12fL	.
12G-	12g-	.
12c-J	12cc-J	.
12AnL	12anL	.
12B-	12b-	.
12e-J	12ee-J	.
=	=	=
12d-L	12dd-L	.
12F	12f	.
12B-J	12b-J	.
12C#L	12c#L	.
12En	12en	.
12AnJ	12anJ	.
12c#L	12cc#L	.
12E-	12e-	.
12A-J	12a-J	.
12BBnL	12BnL	.
12Dn	12dn	.
12GnJ	12gnJ	.
!!LO:LB:g=original
=	=	=
12c-L	12cc-L	.
12E--	12e--	.
12G-J	12g-J	.
12BB-L	12B-L	.
12D-	12d-	.
12G-J	12g-J	.
12B-L	12b-L<	.
12G-	12g-	.
12c-J	12cc-J	.
12cnL	12ccnL	.
12d->	12dd-	.
12e-X>J	12ee-XJ	.
=47	=47	=47
12d-L	12dd-L	.
12c	12cc	.
12c-XJ	12cc-XJ	.
12B-L	12b-L	.
12An	12an	.
12fJ	12ffJ	.
12e-L	12ee-L	.
12dn	12ddn	.
12d-XJ	12dd-XJ	.
12c-L	12cc-L	.
12B-	12b-	.
12g-J	12gg-J	.
=48	=48	=48
12fL	12ffL	.
12e-	12ee-	.
12dnJ	12ddnJ	.
12d-XL	12dd-XL	.
12c	12cc	.
12anJ	12aanJ	.
*clefG2	*	*
12cL	12ccL	.
12d-	12dd-	.
12b-J	12bb-J	.
12dnL	12ddnL	.
12e-	12ee-	.
12b-J	12bb-J	.
!!LO:LB:g=original
=49	=49	=49
12ccL>	12cccL	.
12b-	12bb-	.
12a-J	12aa-J	.
12g-L	12gg-L	.
12f	12ff	.
12enJ	12eenJ	.
12ccL>	12cccL	.
12b-	12bb-	.
12a-J	12aa-J	.
12g-L	12gg-L	.
12f	12ff	.
12eJ	12eeJ	.
=50	=50	=50
12g->L	12gg-L>	.
12f>	12ff	.
12en>J	12eenJ	.
12e-X>L	12ee-XL>	.
12dn>	12ddn	.
12d-X>J	12dd-XJ	.
12e->L	12ee-L>	.
12Bn>	12bn	.
12c>J	12ccJ	.
12d->L	12dd-L>	.
12An>	12an	.
12B>J	12bJ	.
!LO:CL:ed	!	!
*clefF4	*	*
=51	=51	=51
12cL	12ccL	.
12Gn	12gn	.
12A-J	12a-J	.
12c-XL	12cc-XL>	.
12G-	12g-	.
12e-J	12ee-J	.
12B-L	12b-L	.
12F	12f	.
12G-XJ	12g-XJ	.
12AnL	12anL	.
12En	12en	.
12c#XJ	12cc#XJ	.
!!LO:LB:g=original
=52	=52	=52
12G#XL	12g#XL	.
12D#X	12d#X	.
12EnJ	12enJ	.
12GnL	12gnL	.
12Dn	12dn	.
12BnJ	12bnJ	.
12F#XL	12f#XL	.
12C#X	12c#X	.
12DJ	12dJ	.
12FnL	12fnL	.
12Cn	12cn	.
12AnJ	12anJ	.
=53	=53	=53
12dnL	12ddnL>	.
12An	12an	.
12B-J	12b-J	.
12d-XL	12dd-XL>	.
12A-X	12a-X	.
12f>J	12ffJ	.
12cL	12ccL	.
12Gn	12gn	.
12A-J	12a-J	.
12c-XL	12cc-XL>	.
12G-X	12g-X	.
12e-J	12ee-J	.
=54	=54	=54
12B-L	12b-L	.
12F	12f	.
12G-J	12g-J	.
12AnL	12anL	.
12En	12en	.
12c#XJ	12cc#XJ	.
12G#XL	12g#XL	.
12D#X	12d#X	.
12EJ	12eJ	.
12GnL	12gnL	.
12Dn	12dn	.
12BnJ	12bnJ	.
!!LO:PB:g=original
=55	=55	=55
12en>L	12eenL	.
12Bn>	12bn	.
12c>J	12ccJ	.
12e-X>L	12ee-XL	.
12B-X>	12b-X	.
12gn>J	12ggnJ	.
12dn>L	12ddnL>	.
12An>	12an	.
12B->J	12b-J	.
12d-X>L	12dd-XL>	.
12A-X>	12a-X	.
12f>J	12ffJ	.
=56	=56	=56
12c>L	12ccL	.
12Gn>	12gn	.
12A->J	12a-J	.
12c-X>L<	12cc-XL>	.
12G-X	12g-X	.
12e-J	12ee-J	.
12B-L	12b-L>	.
12F	12f	.
12e-J	12ee-J	.
12B-L	12b-L	.
12F	12f	.
12d-J	12dd-J	.
=57	=57	=57
12G-L	12g-L	.
12F	12f	.
12F-XJ	12f-XJ	.
12E-L	12e-L	.
12D-	12d-	.
12CJ	12cJ	.
12G-L	12g-L	.
12Fn	12fn	.
12E-J	12e-J	.
12D-L<	12d-L	.
12C	12c	.
12BB-J	12B-J	.
!!LO:LB:g=original
=58	=58	=58
12G-L	12g-L	.
12F	12f	.
12E-J	12e-J	.
12D-L<	12d-L	.
12C	12c	.
12C-XJ	12c-XJ	.
12G-L	12g-L	.
12F	12f	.
12E-J	12e-J	.
12D-L	12d-L	.
12C-	12c-	.
12BB-J	12B-J	.
=59	=59	=59
12AAnL	12An<L	.
12BB-	12B-<	.
12CnJ	12cnJ	.
12E-L	12e-L	.
12D-	12d-	.
12AAJ	12A<J	.
12CL	12cL	.
12BB-	12B-	.
12FFJ	12F<J	.
12AA-XL	12A-X<L	.
12GG-	12G-<	.
12FFJ	12F<J	.
=60	=60	=60
12EE-L	12E-<L	.
12FF	12F<	.
12GG-J	12G-<J	.
12BB-L	12B-<L	.
12AA-	12A-<	.
12GG-J	12G-<J	.
12FFL	12F<L	.
12DD-	12D-<	.
12EE-J	12E-<J	.
12FFL	12F<L	.
12EEn	12En<	.
12FFJ	12F<J	.
!!LO:LB:g=original
=61	=61	=61
12GG-L	12G-<L	.
12FF	12F<	.
12EEnJ	12En<J	.
12EE-XL	12E-<L	.
12DD-	12D-<	.
12CCJ	12C<J	.
12GG-L	12G-<L	.
12FF	12F<	.
12EE-XJ	12E-X<J	.
12DD-L	12D-<L	.
12CC	12C<	.
12BBB-J	12BB-<J	.
=62	=62	=62
12GG-L	12G-<L	.
12FF	12F<	.
12EE-J	12E-<J	.
12DD-L	12D-<L	.
12CC	12C<	.
12CC-XJ	12C-<J	.
12GG-L	12G-<L	.
12FF	12F<	.
12EE-J	12E-<J	.
12DD-L	12D-<L	.
12CC-	12C-<	.
12BBB-J	12BB-<J	.
=63	=63	=63
12AAAnL	12AAn<L	.
12BBB-	12BB-<	.
12CC-XJ	12C-<J	.
12DD-L	12D-<L	.
12EE-	12E-<	.
12FFJ	12F<J	.
12GG-L	12G-<L	.
12AA-	12A-<	.
12BB-J	12B-<J	.
12C-XL	12c-L	.
12D-	12d-	.
12E-J	12e-J	.
!!LO:LB:g=original
=64	=64	=64
12FL	12fL	.
12En	12en	.
12D-J	12d-J	.
12CL	12c<L	.
12BB-	12B-<	.
12GG-J	12G-<J	.
12FFL	12F<L	.
12EEn	12En<	.
12DD-J	12D-<J	.
12CCL	12C<L	.
12BBB-	12BB-<	.
12GGG-J	12GG-<J	.
=65	=65	=65
12FFFL	12FF<L	.
12BBB-	12BB-<	.
12GGG#XJ	12GG#<J	.
12AAAnL	12AAn<L	.
12DD-	12D-<	.
12AAAJ	12AA<J	.
12BBB-L	12BB-<L	.
12EE-	12E-<	.
12BBBnJ	12BBn<J	.
12CCL	12C<L	.
12FF	12F<	.
12CCJ	12C<J	.
=66	=66	=66
12DD-L	12D-<L	.
12GG-	12G-<	.
12DDnJ	12Dn<J	.
12EE-L	12E-<L	.
12AAn	12An<	.
12FFJ	12F<J	.
12GG-L	12G-<L	.
12D-	12d-	.
12AAnJ	12An<J	.
12CL	12cL	.
12G-	12g-	.
12FJ	12fJ	.
!!LO:LB:g=original
=67	=67	=67
12AAnL	(>12An<L	.
12D-	12d-	.
12AAJ	12A<J	.
12CL	12cL	.
12G-	12g-	.
12FJ	12fJ	.
12AAL	12A<L	.
12D-	12d-	.
12AAJ	12A<J	.
12CL	12cL	.
12G-	12g-	.
12FJ	12fJ	.
=68	=68	=68
12CL	12cL	.
12G-	12g-	.
12FJ	12fJ	.
12CL	12cL	.
12G-	12g-	.
12FJ	12fJ	.
12CL	12cL	.
12G-	12g-	.
12FJ	12fJ	.
12BB-L	12B-L	.
12G-	12g-	.
12FJ	12fJ	.
=69	=69	=69
12D-L	12d-L	.
12FF	12F<	.
12E-J	12e-J	.
12FL	12fL	.
12E-	12e-	.
12D-J	12d-J	.
12BB-L	12B-<L	.
12FF	12F<	.
12CJ	12cJ	.
12D-L<	12d-L	.
12C	12c	.
12BB-J	12B-J	.
=70	=70	=70
12D-L	12d-L	.
12FF	12F<	.
12E-J	12e-J	.
12FL	12fL	.
12E-	12e-	.
12D-J	12d-J	.
12BB-L	12B-<L	.
12FF	12F<	.
12CJ	12c<J	.
12D-L	12d-<L	.
12C	12c<)	.
12BB-J	12B-<J	.
!!LO:LB:g=original
=71	=71	=71
12EE-\L	(>12E-<L	.
12FF	12F<	.
12BB-J	12B-<J	.
!	!LO:TX:t=P:mixed beam:problem	!
12D-L<	12d-\L	.
12DD-	12D-</	.
12FFJ	12F</J)	.
12EE-L	(>12E-<L	.
12FF	12F<	.
12BB-J	12B-<J	.
!	!LO:TX:t=P:mixed beam:problem	!
12D-L<	12d-\L	.
12DD-	12D-</	.
12FFJ	12F</J)	.
=72	=72	=72
!	!LO:TX:a:t=P:the slurs in m. 72, 73 and 74 should be just above the beams:problem	!
12CCL	(>12C<L	.
12DD-	12D-<	.
12FFJ	12F<J	.
12BB-L	12B-<L	.
12BBB-	12BB-<	.
12DD-J	12D-<J)	.
12CCL	(>12C<L	.
12DD-	12D-<	.
12FFJ	12F<J	.
12BB-L	12B-<L	.
12BBB-	12BB-<	.
12DD-J	12D-<J)	.
=73	=73	=73
2rGG	2rF<	.
12CCL	(>12C<L	.
12DD-	12D-<	.
12FFJ	12F<J	.
12BB-L	12B-<L	.
12BBB-	12BB-<	.
12DD-J	12D-<J)	.
=74	=74	=74
2rGG	2rF<	.
12CCL	(>12C<L	.
12DD-	12D-<	.
12FFJ	12F<J	.
12BB-L	12B-<L	.
12BBB-	12BB-<	.
12DD-J	12D-<J)	.
=75	=75	=75
*ped	*	*
4BB-' 4BBB-'	2r	ff
4r	.	.
2f;< 2d- 2B- 2F	2bbb-^<; 2bb-	.
!LO:TX:B:b:t=Fine.	!	!
==	==	==
*-	*-	*-
!!title: @{OTL}; @{OPS} @{ONM} publisher: @{PPR}
!!!system-decoration: {(s1,s2)}
!!!RDF**kern: > = above
!!!RDF**kern: < = below
!!!RDF**kern: i = editorial accidental, bracket
!!!ENC: Zofia Niedbalska
!!!END: 2020-10-23
!!!EED: 
!!!EST: 
!!!rism-genre: Sonata
!!!rism-key: B-flat minor
!!!rism-opus: op.  35
!!!rism-title: Sonata in B-flat minor op.  35